logos/hookstate.svg

<?xml version="1.0" encoding="UTF-8"?>
<svg width="256px" height="325px" viewBox="0 0 256 325" version="1.1" xmlns="http://www.w3.org/2000/svg" preserveAspectRatio="xMidYMid">
    <title>Hookstate</title>
    <g>
        <path d="M86.2338065,231.414038 C99.0319179,226.874081 108.214973,214.694824 108.214973,200.339432 L108.214973,117.543142 C108.214973,103.187749 99.0319179,91.0084922 86.2338065,86.4685359 L86.2338065,73.6585885 C86.2338065,68.4727241 90.4524996,64.2523401 95.6400549,64.2523401 L181.366604,64.2523401 C185.894724,64.2523401 188.640679,66.77172 189.875006,68.2732027 C191.107642,69.7729946 193.048748,72.9551912 192.172883,77.3970776 L157.983715,250.777754 C156.886348,256.349135 151.967639,260.391978 146.288044,260.391978 L95.6840172,260.391978 C90.4727899,260.391978 86.2338065,256.152995 86.2338065,250.941768 L86.2338065,231.414038 Z M232.988527,85.0465235 L198.239685,260.620244 C193.417355,284.98214 171.894412,302.663452 147.059076,302.663452 L94.7861711,302.663452 C66.7618748,302.663452 43.9623327,279.86391 43.9623327,251.839614 L43.9623327,233.338235 L64.2526401,233.338235 L64.2526401,250.941768 C64.2526401,268.301817 78.3256592,282.373145 95.6840172,282.373145 L146.288044,282.373145 C162.483091,282.373145 176.41746,270.919266 179.550621,255.030265 L213.738098,81.6495879 C217.758961,61.2578289 202.150642,42.2711738 181.366604,42.2711738 L95.6400549,42.2711738 C78.3053689,42.2711738 64.2526401,56.3239025 64.2526401,73.6585885 L64.2526401,84.5426476 L43.9623327,84.5426476 L43.9623327,73.1192045 C43.9623327,44.9207498 66.9022161,21.9808664 95.09898,21.9808664 L181.1823,21.9808664 C197.045939,21.9808664 211.920425,29.0114579 221.98949,41.2701853 C232.060246,53.5289127 236.069272,69.4838577 232.988527,85.0465235 L232.988527,85.0465235 Z M181.1823,-0.0003 L95.09898,-0.0003 C54.7178865,-0.0003 21.9811664,32.7364202 21.9811664,73.1192045 L21.9811664,86.4685359 C9.18305496,91.0084922 0,103.187749 0,117.543142 L0,200.339432 C0,214.694824 9.18305496,226.874081 21.9811664,231.414038 L21.9811664,251.839614 C21.9811664,292.04824 54.5775452,324.644619 94.7861711,324.644619 L147.059076,324.644619 C182.46228,324.644619 212.928177,299.618215 219.803209,264.887972 L254.552052,89.3142515 C263.70298,43.0743318 228.318375,-0.0003 181.1823,-0.0003 L181.1823,-0.0003 Z" fill="#3B2C6C"></path>
    </g>
</svg>

<svg preserveAspectRatio="xMidYMid" viewBox="0 0 256 325" xmlns="http://www.w3.org/2000/svg">
  <path fill="#3B2C6C" d="M86.234 231.414c12.798-4.54 21.981-16.72 21.981-31.075v-82.796c0-14.355-9.183-26.535-21.981-31.074v-12.81c0-5.186 4.218-9.407 9.406-9.407h85.727c4.528 0 7.274 2.52 8.508 4.021 1.233 1.5 3.174 4.682 2.298 9.124l-34.19 173.38c-1.097 5.572-6.015 9.615-11.695 9.615H95.684c-5.211 0-9.45-4.239-9.45-9.45v-19.528ZM232.989 85.047l-34.75 175.573c-4.822 24.362-26.345 42.043-51.18 42.043H94.786c-28.024 0-50.824-22.8-50.824-50.823v-18.502h20.29v17.604c0 17.36 14.074 31.431 31.432 31.431h50.604c16.195 0 30.13-11.454 33.263-27.343l34.187-173.38c4.021-20.392-11.587-39.379-32.371-39.379H95.64c-17.335 0-31.387 14.053-31.387 31.388v10.884h-20.29V73.119c0-28.198 22.94-51.138 51.136-51.138h86.083c15.864 0 30.738 7.03 40.807 19.29 10.071 12.258 14.08 28.213 11 43.776ZM181.182 0H95.1C54.718 0 21.981 32.736 21.981 73.12v13.349C9.183 91.009 0 103.188 0 117.543v82.796c0 14.356 9.183 26.535 21.981 31.075v20.426c0 40.208 32.597 72.805 72.805 72.805h52.273c35.403 0 65.87-25.027 72.744-59.757l34.75-175.574C263.702 43.074 228.317 0 181.182 0Z"/>
</svg>
